X: 252
T: Nao yuanxiao
L: 1/16
M: 2/4
K: G
B2B4z2 [I:setbarnb 1]| 
B2 B2 B d B A | 
E2G6 | 
B2 B2 A B A G | 
E2 G2B,4 | 
B B2 B A B A G | 
E2 G2B,4 | 
G2 E DB,4 | 
G2 E DB,4 | 
B B2 B A B A G | 
E G E DB,4 | 
G2 E DB,4 | 
F2 E DB,4 | 
B2 B2 A B A G | 
E2 G2B,4 | 
B z B zz4 | 
B z B zz4 | 
B2 B2 E G E D | 
B d B A E2 G2 | 
d d d B A G A B | 
G2 F EB,4 | 
F2 B,2D4 |]

@@@ Tune index: 9126
